X: 14589
T: Gan Ainm
R: jig
M: 6/8
K: Amajor
E2 E EFA|c2 e cBA|B2 c BAF|AFc BAF|
EFE EF/G/A|c2 e cBA|a2 f ecA|B2 A A2:|
a2 a afe|f2 a fec|EFA c2 E|FEc BAF|
[1 aba afe|f2 a fec|EF/G/A cec|BAG Ac:|
[2 EE/E/E EFA|ceB cBA|a2 f ecA|BA/B/A A2||

